{
 "compressionlevel": -1,
 "type": "map",
 "version": "1.10",
 "tiledversion": "1.11.2",
 "orientation": "orthogonal",
 "renderorder": "right-down",
 "infinite": false,
 "width": 20,
 "height": 11,
 "tilewidth": 32,
 "tileheight": 32,
 "layers": [
  {
   "id": 1,
   "name": "Floor",
   "type": "tilelayer",
   "width": 20,
   "height": 11,
   "x": 0,
   "y": 0,
   "opacity": 1,
   "visible": true,
   "data": [
    0,
    0,
    0,
    0,
    0,
    0,
    0,
    0,
    0,
    0,
    0,
    0,
    0,
    0,
    0,
    0,
    0,
    0,
    0,
    0,
    0,
    0,
    0,
    0,
    0,
    0,
    0,
    0,
    0,
    0,
    0,
    0,
    0,
    0,
    0,
    0,
    0,
    0,
    0,
    0,
    181,
    182,
    183,
    181,
    182,
    183,
    181,
    182,
    183,
    181,
    182,
    183,
    181,
    182,
    183,
    181,
    182,
    183,
    181,
    182,
    196,
    197,
    198,
    196,
    197,
    198,
    196,
    197,
    198,
    196,
    197,
    198,
    196,
    197,
    198,
    196,
    197,
    198,
    196,
    197,
    181,
    182,
    183,
    181,
    182,
    183,
    181,
    182,
    183,
    181,
    182,
    183,
    181,
    182,
    183,
    181,
    182,
    183,
    181,
    182,
    196,
    197,
    198,
    196,
    197,
    198,
    196,
    197,
    198,
    196,
    197,
    198,
    196,
    197,
    198,
    196,
    197,
    198,
    196,
    197,
    181,
    182,
    183,
    181,
    182,
    183,
    181,
    182,
    183,
    181,
    182,
    183,
    181,
    182,
    183,
    181,
    182,
    183,
    181,
    182,
    196,
    197,
    198,
    196,
    197,
    198,
    196,
    197,
    198,
    196,
    197,
    198,
    196,
    197,
    198,
    196,
    197,
    198,
    196,
    197,
    181,
    182,
    183,
    181,
    182,
    183,
    181,
    182,
    183,
    181,
    182,
    183,
    181,
    182,
    183,
    181,
    182,
    183,
    181,
    182,
    196,
    197,
    198,
    196,
    197,
    198,
    196,
    197,
    198,
    196,
    197,
    198,
    196,
    197,
    198,
    196,
    197,
    198,
    196,
    197,
    181,
    182,
    183,
    181,
    182,
    183,
    181,
    182,
    183,
    181,
    182,
    183,
    181,
    182,
    183,
    181,
    182,
    183,
    181,
    182
   ]
  },
  {
   "id": 2,
   "name": "Walls",
   "type": "tilelayer",
   "width": 20,
   "height": 11,
   "x": 0,
   "y": 0,
   "opacity": 1,
   "visible": true,
   "data": [
    793,
    794,
    794,
    794,
    794,
    794,
    794,
    794,
    794,
    794,
    794,
    794,
    794,
    794,
    794,
    794,
    794,
    794,
    794,
    795,
    825,
    826,
    826,
    826,
    826,
    826,
    826,
    826,
    826,
    826,
    826,
    826,
    826,
    826,
    826,
    826,
    826,
    826,
    826,
    827,
    0,
    0,
    0,
    0,
    0,
    0,
    0,
    0,
    0,
    0,
    0,
    0,
    0,
    0,
    0,
    0,
    0,
    0,
    0,
    0,
    0,
    0,
    0,
    0,
    0,
    0,
    0,
    0,
    0,
    0,
    0,
    0,
    0,
    0,
    0,
    0,
    0,
    0,
    0,
    0,
    0,
    0,
    0,
    0,
    0,
    0,
    0,
    0,
    0,
    0,
    0,
    0,
    0,
    0,
    0,
    0,
    0,
    0,
    0,
    0,
    0,
    0,
    0,
    0,
    0,
    0,
    0,
    0,
    0,
    0,
    0,
    0,
    0,
    0,
    0,
    0,
    0,
    0,
    0,
    0,
    0,
    0,
    0,
    0,
    0,
    0,
    0,
    0,
    0,
    0,
    0,
    0,
    0,
    0,
    0,
    0,
    0,
    0,
    0,
    0,
    0,
    0,
    0,
    0,
    0,
    0,
    0,
    0,
    0,
    0,
    0,
    0,
    0,
    0,
    0,
    0,
    0,
    0,
    0,
    0,
    0,
    0,
    0,
    0,
    0,
    0,
    0,
    0,
    0,
    0,
    0,
    0,
    0,
    0,
    0,
    0,
    0,
    0,
    0,
    0,
    0,
    0,
    0,
    0,
    0,
    0,
    0,
    0,
    0,
    0,
    0,
    0,
    0,
    0,
    0,
    0,
    0,
    0,
    0,
    0,
    0,
    0,
    0,
    0,
    0,
    0,
    0,
    0,
    0,
    0,
    0,
    0,
    0,
    0,
    0,
    0,
    0,
    0,
    0,
    0
   ]
  },
  {
   "id": 3,
   "name": "Furniture",
   "type": "tilelayer",
   "width": 20,
   "height": 11,
   "x": 0,
   "y": 0,
   "opacity": 1,
   "visible": true,
   "data": [
    0,
    0,
    0,
    0,
    0,
    0,
    0,
    0,
    0,
    0,
    0,
    0,
    0,
    0,
    0,
    0,
    0,
    0,
    0,
    0,
    0,
    0,
    0,
    0,
    0,
    0,
    0,
    0,
    0,
    0,
    0,
    0,
    0,
    0,
    0,
    0,
    0,
    0,
    0,
    0,
    0,
    0,
    0,
    0,
    0,
    0,
    0,
    0,
    0,
    0,
    0,
    0,
    0,
    0,
    0,
    0,
    0,
    0,
    0,
    0,
    0,
    0,
    0,
    0,
    0,
    0,
    0,
    0,
    0,
    0,
    0,
    0,
    0,
    0,
    0,
    0,
    0,
    0,
    0,
    0,
    0,
    0,
    0,
    0,
    0,
    0,
    0,
    0,
    0,
    0,
    0,
    0,
    0,
    0,
    0,
    0,
    0,
    0,
    0,
    0,
    0,
    0,
    0,
    0,
    0,
    0,
    0,
    0,
    0,
    0,
    0,
    0,
    0,
    0,
    0,
    0,
    0,
    0,
    0,
    0,
    0,
    0,
    0,
    0,
    0,
    0,
    0,
    0,
    0,
    0,
    0,
    0,
    0,
    0,
    0,
    0,
    0,
    0,
    0,
    0,
    0,
    0,
    0,
    0,
    0,
    0,
    0,
    0,
    0,
    0,
    0,
    0,
    0,
    0,
    0,
    0,
    0,
    0,
    0,
    0,
    0,
    0,
    0,
    0,
    0,
    0,
    0,
    0,
    0,
    0,
    0,
    0,
    0,
    0,
    0,
    0,
    0,
    0,
    0,
    0,
    0,
    0,
    0,
    0,
    0,
    0,
    0,
    0,
    0,
    0,
    0,
    0,
    0,
    0,
    0,
    0,
    0,
    0,
    0,
    0,
    0,
    0,
    0,
    0,
    0,
    0,
    0,
    0,
    0,
    0,
    0,
    0,
    0,
    0,
    0,
    0,
    0,
    0,
    0,
    0
   ]
  },
  {
   "id": 4,
   "name": "Decor",
   "type": "tilelayer",
   "width": 20,
   "height": 11,
   "x": 0,
   "y": 0,
   "opacity": 1,
   "visible": true,
   "data": [
    0,
    0,
    0,
    0,
    0,
    0,
    0,
    0,
    0,
    0,
    0,
    0,
    0,
    0,
    0,
    0,
    0,
    0,
    0,
    0,
    0,
    0,
    0,
    0,
    0,
    0,
    0,
    0,
    0,
    0,
    0,
    0,
    0,
    0,
    0,
    0,
    0,
    0,
    0,
    0,
    0,
    0,
    0,
    0,
    0,
    0,
    0,
    0,
    0,
    0,
    0,
    0,
    0,
    0,
    0,
    0,
    0,
    0,
    0,
    0,
    0,
    0,
    0,
    0,
    0,
    0,
    0,
    0,
    0,
    0,
    0,
    0,
    0,
    0,
    0,
    0,
    0,
    0,
    0,
    0,
    0,
    0,
    0,
    0,
    0,
    0,
    0,
    0,
    0,
    0,
    0,
    0,
    0,
    0,
    0,
    0,
    0,
    0,
    0,
    0,
    0,
    0,
    0,
    0,
    0,
    0,
    0,
    0,
    0,
    0,
    0,
    0,
    0,
    0,
    0,
    0,
    0,
    0,
    0,
    0,
    0,
    0,
    0,
    0,
    0,
    0,
    0,
    0,
    0,
    0,
    0,
    0,
    0,
    0,
    0,
    0,
    0,
    0,
    0,
    0,
    0,
    0,
    0,
    0,
    0,
    0,
    0,
    0,
    0,
    0,
    0,
    0,
    0,
    0,
    0,
    0,
    0,
    0,
    0,
    0,
    0,
    0,
    0,
    0,
    0,
    0,
    0,
    0,
    0,
    0,
    0,
    0,
    0,
    0,
    0,
    0,
    0,
    0,
    0,
    0,
    0,
    0,
    0,
    0,
    0,
    0,
    0,
    0,
    0,
    0,
    0,
    0,
    0,
    0,
    0,
    0,
    0,
    0,
    0,
    0,
    0,
    0,
    0,
    0,
    0,
    0,
    0,
    0,
    0,
    0,
    0,
    0,
    0,
    0,
    0,
    0,
    0,
    0,
    0,
    0
   ]
  },
  {
   "id": 5,
   "name": "Above",
   "type": "tilelayer",
   "width": 20,
   "height": 11,
   "x": 0,
   "y": 0,
   "opacity": 1,
   "visible": true,
   "data": [
    0,
    0,
    0,
    0,
    0,
    0,
    0,
    0,
    0,
    0,
    0,
    0,
    0,
    0,
    0,
    0,
    0,
    0,
    0,
    0,
    0,
    0,
    0,
    0,
    0,
    0,
    0,
    0,
    0,
    0,
    0,
    0,
    0,
    0,
    0,
    0,
    0,
    0,
    0,
    0,
    0,
    0,
    0,
    0,
    0,
    0,
    0,
    0,
    0,
    0,
    0,
    0,
    0,
    0,
    0,
    0,
    0,
    0,
    0,
    0,
    0,
    0,
    0,
    0,
    0,
    0,
    0,
    0,
    0,
    0,
    0,
    0,
    0,
    0,
    0,
    0,
    0,
    0,
    0,
    0,
    0,
    0,
    0,
    0,
    0,
    0,
    0,
    0,
    0,
    0,
    0,
    0,
    0,
    0,
    0,
    0,
    0,
    0,
    0,
    0,
    0,
    0,
    0,
    0,
    0,
    0,
    0,
    0,
    0,
    0,
    0,
    0,
    0,
    0,
    0,
    0,
    0,
    0,
    0,
    0,
    0,
    0,
    0,
    0,
    0,
    0,
    0,
    0,
    0,
    0,
    0,
    0,
    0,
    0,
    0,
    0,
    0,
    0,
    0,
    0,
    0,
    0,
    0,
    0,
    0,
    0,
    0,
    0,
    0,
    0,
    0,
    0,
    0,
    0,
    0,
    0,
    0,
    0,
    0,
    0,
    0,
    0,
    0,
    0,
    0,
    0,
    0,
    0,
    0,
    0,
    0,
    0,
    0,
    0,
    0,
    0,
    0,
    0,
    0,
    0,
    0,
    0,
    0,
    0,
    0,
    0,
    0,
    0,
    0,
    0,
    0,
    0,
    0,
    0,
    0,
    0,
    0,
    0,
    0,
    0,
    0,
    0,
    0,
    0,
    0,
    0,
    0,
    0,
    0,
    0,
    0,
    0,
    0,
    0,
    0,
    0,
    0,
    0,
    0,
    0
   ]
  },
  {
   "id": 6,
   "name": "Collision",
   "type": "objectgroup",
   "draworder": "topdown",
   "objects": [
    {
     "id": 1,
     "name": "parede",
     "type": "",
     "x": 0,
     "y": 0,
     "width": 640,
     "height": 64,
     "rotation": 0,
     "visible": true
    },
    {
     "id": 6,
     "name": "Balcão do Leo + máquina de café",
     "type": "",
     "x": 64,
     "y": 96,
     "width": 160,
     "height": 64,
     "rotation": 0,
     "visible": true
    },
    {
     "id": 9,
     "name": "Vitrine de doces",
     "type": "",
     "x": 224,
     "y": 96,
     "width": 64,
     "height": 64,
     "rotation": 0,
     "visible": true
    },
    {
     "id": 12,
     "name": "Caixa da Mia (registradora)",
     "type": "",
     "x": 384,
     "y": 96,
     "width": 128,
     "height": 64,
     "rotation": 0,
     "visible": true
    },
    {
     "id": 15,
     "name": "Mesa",
     "type": "",
     "x": 64,
     "y": 224,
     "width": 64,
     "height": 64,
     "rotation": 0,
     "visible": true
    },
    {
     "id": 18,
     "name": "Mesa (cliente no celular)",
     "type": "",
     "x": 192,
     "y": 224,
     "width": 64,
     "height": 64,
     "rotation": 0,
     "visible": true
    },
    {
     "id": 21,
     "name": "Mesa do Mr. Brown",
     "type": "",
     "x": 480,
     "y": 224,
     "width": 64,
     "height": 64,
     "rotation": 0,
     "visible": true
    },
    {
     "id": 24,
     "name": "Planta",
     "type": "",
     "x": 0,
     "y": 64,
     "width": 32,
     "height": 32,
     "rotation": 0,
     "visible": true
    },
    {
     "id": 27,
     "name": "Planta",
     "type": "",
     "x": 608,
     "y": 64,
     "width": 32,
     "height": 32,
     "rotation": 0,
     "visible": true
    },
    {
     "id": 30,
     "name": "Planta",
     "type": "",
     "x": 0,
     "y": 288,
     "width": 32,
     "height": 64,
     "rotation": 0,
     "visible": true
    },
    {
     "id": 33,
     "name": "Planta",
     "type": "",
     "x": 608,
     "y": 288,
     "width": 32,
     "height": 64,
     "rotation": 0,
     "visible": true
    }
   ],
   "opacity": 1,
   "visible": false,
   "x": 0,
   "y": 0,
   "color": "#ff3b3b"
  },
  {
   "id": 7,
   "name": "Points",
   "type": "objectgroup",
   "draworder": "topdown",
   "objects": [
    {
     "id": 38,
     "name": "player",
     "type": "",
     "x": 304,
     "y": 320,
     "width": 0,
     "height": 0,
     "rotation": 0,
     "visible": true,
     "point": true
    },
    {
     "id": 39,
     "name": "emma",
     "type": "",
     "x": 400,
     "y": 288,
     "width": 0,
     "height": 0,
     "rotation": 0,
     "visible": true,
     "point": true
    },
    {
     "id": 40,
     "name": "leo",
     "type": "",
     "x": 144,
     "y": 96,
     "width": 0,
     "height": 0,
     "rotation": 0,
     "visible": true,
     "point": true
    },
    {
     "id": 41,
     "name": "mia",
     "type": "",
     "x": 432,
     "y": 96,
     "width": 0,
     "height": 0,
     "rotation": 0,
     "visible": true,
     "point": true
    },
    {
     "id": 42,
     "name": "mr_brown",
     "type": "",
     "x": 528,
     "y": 256,
     "width": 0,
     "height": 0,
     "rotation": 0,
     "visible": true,
     "point": true
    },
    {
     "id": 43,
     "name": "phone_customer",
     "type": "",
     "x": 208,
     "y": 256,
     "width": 0,
     "height": 0,
     "rotation": 0,
     "visible": true,
     "point": true
    },
    {
     "id": 44,
     "name": "pickup",
     "type": "",
     "x": 80,
     "y": 192,
     "width": 0,
     "height": 0,
     "rotation": 0,
     "visible": true,
     "point": true
    },
    {
     "id": 45,
     "name": "exit",
     "type": "",
     "x": 304,
     "y": 352,
     "width": 0,
     "height": 0,
     "rotation": 0,
     "visible": true,
     "point": true
    }
   ],
   "opacity": 1,
   "visible": true,
   "x": 0,
   "y": 0,
   "color": "#22d3ee"
  },
  {
   "id": 8,
   "name": "_Esboco",
   "type": "objectgroup",
   "draworder": "topdown",
   "objects": [
    {
     "id": 2,
     "name": "Quadro do cardápio",
     "type": "",
     "x": 128,
     "y": 0,
     "width": 96,
     "height": 64,
     "rotation": 0,
     "visible": true
    },
    {
     "id": 3,
     "name": "",
     "type": "",
     "x": 128,
     "y": 0,
     "width": 96,
     "height": 64,
     "rotation": 0,
     "visible": true,
     "text": {
      "text": "Quadro do cardápio",
      "wrap": true,
      "pixelsize": 11,
      "bold": true,
      "color": "#ffffff",
      "halign": "center",
      "valign": "center"
     }
    },
    {
     "id": 4,
     "name": "Balcão do Leo + máquina de café",
     "type": "",
     "x": 64,
     "y": 96,
     "width": 160,
     "height": 64,
     "rotation": 0,
     "visible": true
    },
    {
     "id": 5,
     "name": "",
     "type": "",
     "x": 64,
     "y": 96,
     "width": 160,
     "height": 64,
     "rotation": 0,
     "visible": true,
     "text": {
      "text": "Balcão do Leo + máquina de café",
      "wrap": true,
      "pixelsize": 11,
      "bold": true,
      "color": "#ffffff",
      "halign": "center",
      "valign": "center"
     }
    },
    {
     "id": 7,
     "name": "Vitrine de doces",
     "type": "",
     "x": 224,
     "y": 96,
     "width": 64,
     "height": 64,
     "rotation": 0,
     "visible": true
    },
    {
     "id": 8,
     "name": "",
     "type": "",
     "x": 224,
     "y": 96,
     "width": 64,
     "height": 64,
     "rotation": 0,
     "visible": true,
     "text": {
      "text": "Vitrine de doces",
      "wrap": true,
      "pixelsize": 11,
      "bold": true,
      "color": "#ffffff",
      "halign": "center",
      "valign": "center"
     }
    },
    {
     "id": 10,
     "name": "Caixa da Mia (registradora)",
     "type": "",
     "x": 384,
     "y": 96,
     "width": 128,
     "height": 64,
     "rotation": 0,
     "visible": true
    },
    {
     "id": 11,
     "name": "",
     "type": "",
     "x": 384,
     "y": 96,
     "width": 128,
     "height": 64,
     "rotation": 0,
     "visible": true,
     "text": {
      "text": "Caixa da Mia (registradora)",
      "wrap": true,
      "pixelsize": 11,
      "bold": true,
      "color": "#ffffff",
      "halign": "center",
      "valign": "center"
     }
    },
    {
     "id": 13,
     "name": "Mesa",
     "type": "",
     "x": 64,
     "y": 224,
     "width": 64,
     "height": 64,
     "rotation": 0,
     "visible": true
    },
    {
     "id": 14,
     "name": "",
     "type": "",
     "x": 64,
     "y": 224,
     "width": 64,
     "height": 64,
     "rotation": 0,
     "visible": true,
     "text": {
      "text": "Mesa",
      "wrap": true,
      "pixelsize": 11,
      "bold": true,
      "color": "#ffffff",
      "halign": "center",
      "valign": "center"
     }
    },
    {
     "id": 16,
     "name": "Mesa (cliente no celular)",
     "type": "",
     "x": 192,
     "y": 224,
     "width": 64,
     "height": 64,
     "rotation": 0,
     "visible": true
    },
    {
     "id": 17,
     "name": "",
     "type": "",
     "x": 192,
     "y": 224,
     "width": 64,
     "height": 64,
     "rotation": 0,
     "visible": true,
     "text": {
      "text": "Mesa (cliente no celular)",
      "wrap": true,
      "pixelsize": 11,
      "bold": true,
      "color": "#ffffff",
      "halign": "center",
      "valign": "center"
     }
    },
    {
     "id": 19,
     "name": "Mesa do Mr. Brown",
     "type": "",
     "x": 480,
     "y": 224,
     "width": 64,
     "height": 64,
     "rotation": 0,
     "visible": true
    },
    {
     "id": 20,
     "name": "",
     "type": "",
     "x": 480,
     "y": 224,
     "width": 64,
     "height": 64,
     "rotation": 0,
     "visible": true,
     "text": {
      "text": "Mesa do Mr. Brown",
      "wrap": true,
      "pixelsize": 11,
      "bold": true,
      "color": "#ffffff",
      "halign": "center",
      "valign": "center"
     }
    },
    {
     "id": 22,
     "name": "Planta",
     "type": "",
     "x": 0,
     "y": 64,
     "width": 32,
     "height": 32,
     "rotation": 0,
     "visible": true
    },
    {
     "id": 23,
     "name": "",
     "type": "",
     "x": 0,
     "y": 64,
     "width": 32,
     "height": 32,
     "rotation": 0,
     "visible": true,
     "text": {
      "text": "Planta",
      "wrap": true,
      "pixelsize": 11,
      "bold": true,
      "color": "#ffffff",
      "halign": "center",
      "valign": "center"
     }
    },
    {
     "id": 25,
     "name": "Planta",
     "type": "",
     "x": 608,
     "y": 64,
     "width": 32,
     "height": 32,
     "rotation": 0,
     "visible": true
    },
    {
     "id": 26,
     "name": "",
     "type": "",
     "x": 608,
     "y": 64,
     "width": 32,
     "height": 32,
     "rotation": 0,
     "visible": true,
     "text": {
      "text": "Planta",
      "wrap": true,
      "pixelsize": 11,
      "bold": true,
      "color": "#ffffff",
      "halign": "center",
      "valign": "center"
     }
    },
    {
     "id": 28,
     "name": "Planta",
     "type": "",
     "x": 0,
     "y": 288,
     "width": 32,
     "height": 64,
     "rotation": 0,
     "visible": true
    },
    {
     "id": 29,
     "name": "",
     "type": "",
     "x": 0,
     "y": 288,
     "width": 32,
     "height": 64,
     "rotation": 0,
     "visible": true,
     "text": {
      "text": "Planta",
      "wrap": true,
      "pixelsize": 11,
      "bold": true,
      "color": "#ffffff",
      "halign": "center",
      "valign": "center"
     }
    },
    {
     "id": 31,
     "name": "Planta",
     "type": "",
     "x": 608,
     "y": 288,
     "width": 32,
     "height": 64,
     "rotation": 0,
     "visible": true
    },
    {
     "id": 32,
     "name": "",
     "type": "",
     "x": 608,
     "y": 288,
     "width": 32,
     "height": 64,
     "rotation": 0,
     "visible": true,
     "text": {
      "text": "Planta",
      "wrap": true,
      "pixelsize": 11,
      "bold": true,
      "color": "#ffffff",
      "halign": "center",
      "valign": "center"
     }
    },
    {
     "id": 34,
     "name": "Tapete da entrada",
     "type": "",
     "x": 288,
     "y": 320,
     "width": 64,
     "height": 32,
     "rotation": 0,
     "visible": true
    },
    {
     "id": 35,
     "name": "",
     "type": "",
     "x": 288,
     "y": 320,
     "width": 64,
     "height": 32,
     "rotation": 0,
     "visible": true,
     "text": {
      "text": "Tapete da entrada",
      "wrap": true,
      "pixelsize": 11,
      "bold": true,
      "color": "#ffffff",
      "halign": "center",
      "valign": "center"
     }
    },
    {
     "id": 36,
     "name": "Retirada do pedido",
     "type": "",
     "x": 64,
     "y": 160,
     "width": 32,
     "height": 32,
     "rotation": 0,
     "visible": true
    },
    {
     "id": 37,
     "name": "",
     "type": "",
     "x": 64,
     "y": 160,
     "width": 32,
     "height": 32,
     "rotation": 0,
     "visible": true,
     "text": {
      "text": "Retirada do pedido",
      "wrap": true,
      "pixelsize": 11,
      "bold": true,
      "color": "#ffffff",
      "halign": "center",
      "valign": "center"
     }
    }
   ],
   "opacity": 0.85,
   "visible": true,
   "x": 0,
   "y": 0,
   "color": "#ffb020"
  }
 ],
 "nextlayerid": 9,
 "nextobjectid": 46,
 "tilesets": [
  {
   "firstgid": 1,
   "name": "floors",
   "image": "../../game-assets/tilesets/floors.png",
   "imagewidth": 480,
   "imageheight": 1280,
   "columns": 15,
   "tilecount": 600,
   "tilewidth": 32,
   "tileheight": 32,
   "margin": 0,
   "spacing": 0
  },
  {
   "firstgid": 601,
   "name": "walls",
   "image": "../../game-assets/tilesets/walls.png",
   "imagewidth": 1024,
   "imageheight": 1280,
   "columns": 32,
   "tilecount": 1280,
   "tilewidth": 32,
   "tileheight": 32,
   "margin": 0,
   "spacing": 0
  },
  {
   "firstgid": 1881,
   "name": "kitchen",
   "image": "../../game-assets/tilesets/kitchen.png",
   "imagewidth": 512,
   "imageheight": 1568,
   "columns": 16,
   "tilecount": 784,
   "tilewidth": 32,
   "tileheight": 32,
   "margin": 0,
   "spacing": 0
  },
  {
   "firstgid": 2665,
   "name": "icecream",
   "image": "../../game-assets/tilesets/icecream.png",
   "imagewidth": 512,
   "imageheight": 544,
   "columns": 16,
   "tilecount": 272,
   "tilewidth": 32,
   "tileheight": 32,
   "margin": 0,
   "spacing": 0
  },
  {
   "firstgid": 2937,
   "name": "grocery",
   "image": "../../game-assets/tilesets/grocery.png",
   "imagewidth": 512,
   "imageheight": 2496,
   "columns": 16,
   "tilecount": 1248,
   "tilewidth": 32,
   "tileheight": 32,
   "margin": 0,
   "spacing": 0
  },
  {
   "firstgid": 4185,
   "name": "generic",
   "image": "../../game-assets/tilesets/generic.png",
   "imagewidth": 512,
   "imageheight": 2496,
   "columns": 16,
   "tilecount": 1248,
   "tilewidth": 32,
   "tileheight": 32,
   "margin": 0,
   "spacing": 0
  },
  {
   "firstgid": 5433,
   "name": "livingroom",
   "image": "../../game-assets/tilesets/livingroom.png",
   "imagewidth": 512,
   "imageheight": 1440,
   "columns": 16,
   "tilecount": 720,
   "tilewidth": 32,
   "tileheight": 32,
   "margin": 0,
   "spacing": 0
  }
 ]
}